svg/device/escalator_up_line.svg

<?xml version="1.0" encoding="UTF-8"?>
<svg width="24px" height="24px" viewBox="0 0 24 24" version="1.1" xmlns="http://www.w3.org/2000/svg" xmlns:xlink="http://www.w3.org/1999/xlink">
    <title>escalator_up_line</title>
    <g id="Icon" stroke="none" stroke-width="1" fill="none" fill-rule="evenodd">
        <g id="Device" transform="translate(-48.000000, -384.000000)">
            <g id="escalator_up_line" transform="translate(48.000000, 384.000000)">
                <path d="M24,0 L24,24 L0,24 L0,0 L24,0 Z M12.5935,23.2578 L12.5819,23.2595 L12.5109,23.295 L12.4919,23.2987 L12.4767,23.295 L12.4057,23.2595 C12.3958,23.2564 12.387,23.259 12.3821,23.2649 L12.378,23.2758 L12.3609,23.7031 L12.3659,23.7235 L12.3769,23.7357 L12.4805,23.8097 L12.4953,23.8136 L12.5071,23.8097 L12.6107,23.7357 L12.6233,23.7197 L12.6267,23.7031 L12.6096,23.2758 C12.6076,23.2657 12.601,23.2593 12.5935,23.2578 Z M12.8584,23.1453 L12.8445,23.1473 L12.6598,23.2397 L12.6499,23.2499 L12.6472,23.2611 L12.6651,23.6906 L12.6699,23.7034 L12.6784,23.7105 L12.8793,23.8032 C12.8914,23.8069 12.9022,23.803 12.9078,23.7952 L12.9118,23.7812 L12.8777,23.1665 C12.8753,23.1546 12.8674,23.147 12.8584,23.1453 Z M12.143,23.1473 C12.1332,23.1424 12.1222,23.1453 12.1156,23.1526 L12.1099,23.1665 L12.0758,23.7812 C12.0751,23.7927 12.0828,23.8019 12.0926,23.8046 L12.1083,23.8032 L12.3092,23.7105 L12.3186,23.7024 L12.3225,23.6906 L12.3404,23.2611 L12.3372,23.2485 L12.3278,23.2397 L12.143,23.1473 Z" id="MingCute" fill-rule="nonzero"></path>
                <path d="M2,16.1716 C2,17.8285 3.34315,19.1716 5,19.1716 L8.03875,19.1716 C8.9501,19.1716 9.81204,18.7574 10.3814,18.0457 L17.4806,9.17163 L19,9.17163 C20.6569,9.17163 22,7.82849 22,6.17163 C22,4.51478 20.6569,3.17163 19,3.17163 L15.9612,3.17163 C15.0499,3.17163 14.188,3.5859 13.6186,4.29755 L6.51937,13.1716 L5,13.1716 C3.34315,13.1716 2,14.5148 2,16.1716 Z M20,6.17163 C20,6.72392 19.5523,7.17163 19,7.17163 L17,7.17163 C16.6962,7.17163 16.4089,7.30972 16.2191,7.54694 L8.81962,16.7963 C8.62985,17.0335 8.34253,17.1716 8.03875,17.1716 L5,17.1716 C4.44772,17.1716 4,16.7239 4,16.1716 C4,15.6193 4.44772,15.1716 5,15.1716 L6.75969,15.1716 C7.21536,15.1716 7.64633,14.9645 7.93099,14.6087 L15.1804,5.54694 C15.3702,5.30972 15.6575,5.17163 15.9612,5.17163 L19,5.17163 C19.5523,5.17163 20,5.61935 20,6.17163 Z M6,10.8284 C6.55228,10.8284 7,10.3807 7,9.82843 L7,6.58584 L7.41421,7.00006 C7.80474,7.39058 8.4379,7.39058 8.82843,7.00006 C9.21895,6.60953 9.21895,5.97637 8.82843,5.58584 L6.70711,3.46452 C6.31658,3.074 5.68342,3.074 5.29289,3.46452 L3.17157,5.58584 C2.78105,5.97637 2.78105,6.60953 3.17157,7.00006 C3.5621,7.39058 4.19526,7.39058 4.58579,7.00006 L5,6.58585 L5,9.82843 C5,10.3807 5.44771,10.8284 6,10.8284 Z" id="形状" fill="#09244B"></path>
            </g>
        </g>
    </g>
</svg>

<svg xmlns="http://www.w3.org/2000/svg" width="24" height="24"><g fill="none" fill-rule="evenodd"><path d="M24 0v24H0V0h24ZM12.594 23.258l-.012.002-.071.035-.02.004-.014-.004-.071-.036c-.01-.003-.019 0-.024.006l-.004.01-.017.428.005.02.01.013.104.074.015.004.012-.004.104-.074.012-.016.004-.017-.017-.427c-.002-.01-.009-.017-.016-.018Zm.264-.113-.014.002-.184.093-.01.01-.003.011.018.43.005.012.008.008.201.092c.012.004.023 0 .029-.008l.004-.014-.034-.614c-.003-.012-.01-.02-.02-.022Zm-.715.002a.023.023 0 0 0-.027.006l-.006.014-.034.614c0 .012.007.02.017.024l.015-.002.201-.093.01-.008.003-.011.018-.43-.003-.012-.01-.01-.184-.092Z"/><path fill="#09244B" d="M2 16.172a3 3 0 0 0 3 3h3.039a3 3 0 0 0 2.342-1.126l7.1-8.874H19a3 3 0 1 0 0-6h-3.039a3 3 0 0 0-2.342 1.126l-7.1 8.874H5a3 3 0 0 0-3 3Zm18-10a1 1 0 0 1-1 1h-2a1 1 0 0 0-.78.375l-7.4 9.25a1 1 0 0 1-.781.375H5a1 1 0 1 1 0-2h1.76a1.5 1.5 0 0 0 1.171-.563l7.25-9.062a1 1 0 0 1 .78-.375H19a1 1 0 0 1 1 1ZM6 10.828a1 1 0 0 0 1-1V6.586L7.414 7a1 1 0 0 0 1.414-1.414l-2.12-2.121a1 1 0 0 0-1.415 0l-2.121 2.12A1 1 0 0 0 4.586 7L5 6.586v3.242a1 1 0 0 0 1 1Z"/></g></svg>
